T: Both Meat And Drink
M: 6/8
L: 1/8
K: Dmaj
K: Dmaj
|: A,DF A^GA | BAF GEC | DFA dcd | fed cec |
dBd cAc | BGB dcB |c^Bc edc | dAF GEC :|
|: dcd dcd |AFD DCD |=cBc cBc |edc Aec |
dcd fed | cec dAF | GED CDE | EDC D3 :|
